X: 293
M: 6/8
L: 1/8
K: G
d |\
d3- d3d | dcB ABG | !+!A3- A2D | GFG AGA | BAB cBc | dcB ABG |
!+!A2D D2c | BAG AGF | G2G G2c | BAG AGF | G3- G2 :|

